X:0075
T:Little House under the Hill.
M:2/4
L:1/16
Q:1/4=120
I: :: ::
% D G A B c d e ^f g
Z:Jack Campin * www.campin.me.uk * 2009
K:G
c2| B2d2  d2(ef)|(gf)(ed) g2d2| g2d2  g2d2 |c2A2 A2
c2| B2d2  d2(ef)|(gfed)   g2B2| c2e2 (dedc)|B2G2 G2:|
c2|(BcdB) G2B2  | c2e2    A2c2|(BcdB) G2B2 |A2D2 D2
c2|(BcdB) G2B2  | c2e2    A2f2| g2d2  e2c2 |B2G2 G2:|
<end>
<start>
